X:1
T:Loved One, Farewell
T:Loved One, Farewell
T:Asa Brooks Everett
T:Mary Bridges Canedy Slade, 1876
T:Public Domain Courtesy of the Cyber Hymnal™
C:Asa Brooks Everett
Z:Public Domain
Z:Courtesy of the Cyber Hymnal™
%%score ( 1 2 ) ( 3 4 )
L:1/8
Q:1/4=113
M:3/4
K:G
V:1 treble 
V:2 treble 
V:3 bass 
V:4 bass 
V:1
 [DB]2 [CA]2 [B,G]2 | (F>E) [CE]4 | D2 [Fc]2 [GB]2 | ([GB]2 [FA]4) | [GB]2 [DA]2 [DG]2 | %5
w: 1.~Birds are re-|joic- * ing,|O’er hill and|dell; *|Hushed is thy|
w: 2.~Thou hast as-|cend- * ed,|Where an- gels|dwell; *|Where, earth songs|
w: 3.~Sal- va- tion’s|sto- * ry|Then thou wilt|tell; *|Tri- umphs of|
w: 4.~Safe from thee|turn- * ing,|Grief’s tones will|knell; *|Hard, hard the|
 (F>E) [CE]4 | [B,D]2 [DF]2 [DA]2 | [DG]6 | [Bd]2 [ce]2 [Bd]2 | [Bd]>[GB] [GB]4 | %10
w: voic- * ing,|Sweet- er that|fell.|Friend of our|hap- py days,|
w: end- * ed,|Heav’n’s an- thems|swell.|Safe, all the|saints a- mong,|
w: glo- * ry,|Thy voice shall|swell.|Rest thou, oh,|friend so dear,|
w: learn- * ing,|God do- eth|well!|Till, be it|soon or late,|
 [Bd]2 [Ac]2 [GB]2 | [GB]>[FA] [FA]4 | [DB]2 [CA]2 [B,G]2 | [CF]>[CE] [CE]4 | [B,D]2 [DF]2 [DA]2 | %15
w: Bro- ther of|prayer and praise,|Thine own sweet|mu- sic says,|Loved one, fare-|
w: Blest with the|prais- ing throng,|Sing- ing the|new made songs,|Loved one, fare-|
w: Thy pre- cious|Sav- ior near,|Where God shall|wipe each tear,|Loved one, fare-|
w: Up, at the|pearl- y gate,|We meet, oh|watch and wait,|Loved one, fare-|
 [DG]6 |] %16
w: well!|
w: well!|
w: well!|
w: well!|
V:2
 x6 | C2 x4 | D2 x4 | x6 | x6 | C2 x4 | x6 | x6 | x6 | x6 | x6 | x6 | x6 | x6 | x6 | x6 |] %16
V:3
 G,2 [D,F,]2 [E,G,]2 | [C,G,]2 [C,G,]4 | [B,,G,]2 [A,,A,]2 (B,C) | [D,D]6 | %4
 [G,,D]2 [A,,C]2 [B,,B,]2 | (A,>G,) [C,G,]4 | [D,G,]2 [D,A,]2 [D,C]2 | [G,,B,]6 | G,2 G,2 G,2 | %9
 G,>G, G,4 | G,2 F,2 G,2 | D,>D, D,4 | G,2 [D,F,]2 [E,G,]2 | [C,G,]>[C,G,] [C,G,]4 | %14
 [D,G,]2 [D,A,]2 [D,C]2 | [G,,B,]6 |] %16
V:4
 G,2 x4 | x6 | x4 G,,2 | x6 | x6 | C,2 x4 | x6 | x6 | G,2 G,2 G,2 | G,>G, G,4 | G,2 F,2 G,2 | %11
 D,>D, D,4 | G,2 x4 | x6 | x6 | x6 |] %16

